React/src/assets/images/frontend/redux.svg

<svg width="130" height="130" viewBox="0 0 130 130" fill="none" xmlns="http://www.w3.org/2000/svg">
<path fill-rule="evenodd" clip-rule="evenodd" d="M86.0044 85.5121C90.0237 85.0963 93.0728 81.6314 92.9342 77.4735C92.7956 73.3156 89.3307 69.9893 85.1728 69.9893H84.8956C80.5991 70.1279 77.2728 73.7314 77.4114 78.0279C77.55 80.1069 78.3816 81.9086 79.629 83.156C74.9167 92.4419 67.7097 99.2331 56.8992 104.916C49.5536 108.796 41.9308 110.182 34.308 109.212C28.0711 108.38 23.2203 105.609 20.1712 101.035C15.7361 94.2437 15.3203 86.8981 19.0624 79.5525C21.6957 74.2858 25.8536 70.4051 28.4869 68.4648C27.9326 66.663 27.101 63.6139 26.6852 61.3964C6.58873 75.949 8.66767 95.6296 14.7659 104.916C19.3396 111.845 28.6255 116.142 38.8817 116.142C41.6536 116.142 44.4255 115.865 47.1974 115.172C64.9378 111.707 78.3816 101.173 86.0044 85.5121V85.5121Z" fill="#AB47BC" stroke="#AB47BC" stroke-width="0.435465" stroke-linejoin="round"/>
<path fill-rule="evenodd" clip-rule="evenodd" d="M110.397 68.326C99.864 55.991 84.3412 49.1998 66.6009 49.1998H64.3834C63.136 46.705 60.5027 45.0419 57.5922 45.0419H57.315C53.0185 45.1805 49.6922 48.784 49.8308 53.0805C49.9694 57.2383 53.4343 60.5647 57.5922 60.5647H57.8694C60.9185 60.4261 63.5518 58.4857 64.6606 55.8524H67.1553C77.6886 55.8524 87.6676 58.9015 96.6763 64.8611C103.606 69.4348 108.596 75.3944 111.368 82.6015C113.724 88.4225 113.585 94.1049 111.09 98.9558C107.21 106.301 100.696 110.321 92.1026 110.321C86.5588 110.321 81.2921 108.658 78.5202 107.41C76.9956 108.796 74.2237 111.014 72.2834 112.4C78.243 115.172 84.3412 116.696 90.1623 116.696C103.468 116.696 113.308 109.351 117.05 102.005C121.069 93.9664 120.792 80.1067 110.397 68.326Z" fill="#AB47BC" stroke="#AB47BC" stroke-width="0.435465" stroke-linejoin="round"/>
<path fill-rule="evenodd" clip-rule="evenodd" d="M39.9904 87.8684C40.129 92.0263 43.5939 95.3526 47.7518 95.3526H48.029C52.3255 95.214 55.6518 91.6105 55.5132 87.314C55.3746 83.1561 51.9097 79.8298 47.7518 79.8298H47.4746C47.1974 79.8298 46.7816 79.8298 46.5044 79.9684C40.822 70.5438 38.4658 60.2877 39.2974 49.2C39.8518 40.8842 42.6237 33.6772 47.4746 27.7176C51.4939 22.5895 59.2553 20.0948 64.5219 19.9562C79.2131 19.679 85.45 37.9737 85.8657 45.3193C87.6675 45.7351 90.7166 46.7053 92.7956 47.3983C91.1324 24.9457 77.2728 13.3036 63.9675 13.3036C51.4939 13.3036 39.9904 22.3123 35.4167 35.6176C29.0413 53.3579 33.1992 70.4052 40.9606 83.8491C40.2676 84.8192 39.8518 86.3438 39.9904 87.8684V87.8684Z" fill="#AB47BC" stroke="#AB47BC" stroke-width="0.435465" stroke-linejoin="round"/>
</svg>

<svg width="130" height="130" fill="none" xmlns="http://www.w3.org/2000/svg"><path fill-rule="evenodd" clip-rule="evenodd" d="M86.004 85.512c4.02-.416 7.069-3.88 6.93-8.038-.138-4.158-3.603-7.485-7.761-7.485h-.277c-4.297.139-7.623 3.742-7.485 8.039.139 2.079.97 3.88 2.218 5.128-4.712 9.286-11.92 16.077-22.73 21.76-7.345 3.88-14.968 5.266-22.591 4.296-6.237-.832-11.088-3.603-14.137-8.177-4.435-6.791-4.85-14.137-1.109-21.483 2.634-5.266 6.792-9.147 9.425-11.087-.554-1.802-1.386-4.851-1.802-7.069C6.59 75.95 8.668 95.63 14.765 104.916c4.575 6.929 13.86 11.226 24.117 11.226 2.772 0 5.544-.277 8.315-.97 17.74-3.465 31.185-13.999 38.807-29.66v0z" fill="#AB47BC" stroke="#AB47BC" stroke-width=".435" stroke-linejoin="round"/><path fill-rule="evenodd" clip-rule="evenodd" d="M110.397 68.326C99.864 55.991 84.341 49.2 66.601 49.2h-2.218c-1.247-2.495-3.88-4.158-6.79-4.158h-.278c-4.296.139-7.623 3.742-7.484 8.038.138 4.158 3.603 7.485 7.761 7.485h.277c3.05-.139 5.683-2.08 6.792-4.713h2.494c10.534 0 20.513 3.05 29.521 9.01 6.93 4.573 11.92 10.532 14.692 17.74 2.356 5.82 2.217 11.503-.278 16.354-3.88 7.345-10.394 11.365-18.987 11.365-5.544 0-10.81-1.663-13.583-2.911-1.524 1.386-4.296 3.604-6.237 4.99 5.96 2.772 12.058 4.296 17.88 4.296 13.305 0 23.145-7.345 26.887-14.691 4.019-8.039 3.742-21.898-6.653-33.679z" fill="#AB47BC" stroke="#AB47BC" stroke-width=".435" stroke-linejoin="round"/><path fill-rule="evenodd" clip-rule="evenodd" d="M39.99 87.868c.139 4.158 3.604 7.485 7.762 7.485h.277c4.296-.139 7.623-3.742 7.484-8.039-.138-4.158-3.603-7.484-7.761-7.484h-.277c-.278 0-.693 0-.97.138-5.683-9.424-8.04-19.68-7.208-30.768.555-8.316 3.327-15.523 8.178-21.482 4.019-5.128 11.78-7.623 17.047-7.762C79.213 19.68 85.45 37.974 85.866 45.32c1.802.416 4.85 1.386 6.93 2.08-1.664-22.453-15.523-34.095-28.829-34.095-12.473 0-23.977 9.008-28.55 22.314-6.376 17.74-2.218 34.787 5.544 48.231-.693.97-1.11 2.495-.97 4.02v0z" fill="#AB47BC" stroke="#AB47BC" stroke-width=".435" stroke-linejoin="round"/></svg>
